X: 1
T: DOUBLE SET-BACK
S: MDT
O: Headington
P: A.(AB2)4
Q: 1/2=116
B: Morris Ring
Z: 2005 John Chambers <jc@trillian.mit.edu>
M: 2/2
L: 1/8
K: G
P: A
Bc |\
  dBdB G2FG | ABAF D2Bc | d2gf edcB | c2A2 A2Bc |
  dedB G2FG | ABAF D2Bc | d2gf edcA | B2G2 G2  ||
P: B
|: Bc |\
  d2g2 d2Bc | d2g2 d2Bc | d2gf edcB |1 c2A2 A2Bc :|2 e2A2 A2 ||
